app/assets/images/icons/globe.svg

<svg width="98" height="107" viewBox="0 0 98 107" xmlns="http://www.w3.org/2000/svg">
<path d="m93.1 71.206h-4.9c5.9099-15.369 3.696-32.999-5.7889-46.099-9.4848-13.1-24.761-19.626-39.944-17.064v-2.3184c0-2.9323-2.1938-5.3093-4.9-5.3093h-32.667c-2.7062 0-4.9 2.3771-4.9 5.3093v24.777c0 2.9323 2.1938 5.3093 4.9 5.3093h4.9c-5.9099 15.369-3.696 32.999 5.7889 46.099 9.4848 13.1 24.761 19.625 39.944 17.064v2.3181c0 2.933 2.1938 5.31 4.9 5.31h32.667c2.7062 0 4.9-2.377 4.9-5.31v-24.776c0-2.9323-2.1938-5.3094-4.9-5.3094zm-8.2973 0h-14.096l-7.6277-5.15c0.7677-0.1593-1.0126-0.1593 23.389-0.1593-1.225 4.3714-1.666 4.4422-1.666 5.3093zm3.0706-23.007h-17.967c-1.0787-0.0047-2.1114-0.4734-2.8711-1.3032-0.7596-0.8297-1.1839-1.9525-1.1796-3.1212 0-2.1183-0.7788-4.1494-2.1643-5.6439-1.3855-1.4946-3.2634-2.3295-5.2184-2.3201h-1.8946c-2.2552 0-4.0834-1.9809-4.0834-4.4244 0-2.4436 1.8282-4.4244 4.0834-4.4244h9.4733c3.6305-0.0148 6.6995-2.9179 7.203-6.8137 8.1119 6.8809 13.37 16.971 14.618 28.051zm-84.607-17.698v-24.777c0-0.97742 0.73126-1.7698 1.6333-1.7698h32.667c0.902 0 1.6333 0.79235 1.6333 1.7698v33.98l-10.568-7.1676c-0.5716-0.3893 1.1434-0.2654-23.732-0.2654-0.43319 0-0.84863-0.1865-1.1549-0.5184s-0.47839-0.782-0.47839-1.2514zm9.9306 5.3093h14.096l7.595 5.1501c-0.7677 0.23-0.4083 0.1592-8.624 0.1592-4.0593 0-7.35 3.5656-7.35 7.964s3.2907 7.964 7.35 7.964h15.157c2.2552 0 4.0834 1.9809 4.0834 4.4244s-1.8282 4.4244-4.0834 4.4244h-29.89c-4.7366-16.795 1.666-28.936 1.666-30.086zm-0.5226 33.626h28.747c4.0593 0 7.35-3.5656 7.35-7.964s-3.2907-7.964-7.35-7.964h-15.157c-2.2552 0-4.0833-1.9809-4.0833-4.4244s1.8281-4.4244 4.0833-4.4244h7.5787c1.5334 0.0388 3.0288-0.5201 4.214-1.5751 2.009 1.3804 2.1723 1.5751 2.7766 1.5751 0.9021 0 1.6334-0.7924 1.6334-1.7698v-31.254c9.643-1.7959 19.557 0.4093 27.767 6.1765-0.065 0.3914-0.0978 0.7882-0.098 1.1858 0.0044 1.1749-0.4244 2.303-1.1911 3.1337-0.7668 0.8308-1.8079 1.2954-2.8922 1.2907h-9.4733c-4.0593 0-7.35 3.5656-7.35 7.964s3.2907 7.964 7.35 7.964h1.8946c2.2424 0.0194 4.0508 1.9946 4.0507 4.4244 0 4.3846 3.2708 7.9445 7.3173 7.964h18.359c0.1716 3.5632-0.1031 7.1353-0.8167 10.619h-23.291c-1.5135-0.0423-2.991 0.5039-4.165 1.5397l-1.8947-1.2742c-0.504-0.3414-1.1393-0.3591-1.6589-0.0463-0.5195 0.3127-0.8413 0.9066-0.8401 1.5506v9.3444c-0.7428 0.8126-1.7537 1.2711-2.8093 1.2742h-10.257c-4.0593 0.2248-7.1818 3.9726-6.9744 8.371 0.2075 4.3984 3.6664 7.7817 7.7257 7.5569h1.8947c1.0786 0.0047 2.1113 0.4735 2.871 1.3032 0.7596 0.8298 1.184 1.9525 1.1796 3.1213v0.8848c-16.028 0.0661-30.478-10.447-36.489-26.546zm39.788 26.37v-0.7079c0-4.3846-3.2708-7.9445-7.3174-7.964h-1.8946c-2.2552 0.1319-4.1821-1.742-4.3039-4.1855-0.1217-2.4436 1.6077-4.5314 3.8629-4.6634h9.9143c0.9655 0.0016 1.9212-0.2092 2.8093-0.6194v17.698c-0.9636 0.1947-1.9763 0.354-3.0706 0.4425zm42.271 5.486c0 0.978-0.7312 1.77-1.6333 1.77h-32.667c-0.902 0-1.6333-0.792-1.6333-1.77v-33.979c11.629 7.8932 10.78 7.4331 11.433 7.4331h22.867c0.9021 0 1.6333 0.7923 1.6333 1.7698v24.776z" fill="#251007"/>
<path d="m9.7996 11.034h1.6333c0.9021 0 1.6333-0.7922 1.6333-1.7694 0-0.97725-0.7312-1.7695-1.6333-1.7695h-1.6333c-0.90206 0-1.6333 0.79221-1.6333 1.7695 0 0.97721 0.73127 1.7694 1.6333 1.7694z"/>
<path d="m17.967 11.034h14.7c0.9021 0 1.6333-0.7922 1.6333-1.7694 0-0.97725-0.7312-1.7695-1.6333-1.7695h-14.7c-0.9021 0-1.6334 0.79221-1.6334 1.7695 0 0.97721 0.7313 1.7694 1.6334 1.7694z" fill="#251007"/>
<path d="m9.7996 19.883h16.333c0.9021 0 1.6334-0.7925 1.6334-1.77s-0.7313-1.77-1.6334-1.77h-16.333c-0.90206 0-1.6333 0.7925-1.6333 1.77s0.73127 1.77 1.6333 1.77z" fill="#251007"/>
<path d="m34.3 26.962c0-0.9774-0.7313-1.7697-1.6333-1.7697h-22.867c-0.90206 0-1.6333 0.7923-1.6333 1.7697s0.73127 1.7697 1.6333 1.7697h22.867c0.902 0 1.6333-0.7923 1.6333-1.7697z" fill="#251007"/>
<path d="m89.833 87.134h-26.133c-0.9021 0-1.6333 0.7923-1.6333 1.7697s0.7312 1.7697 1.6333 1.7697h26.133c0.902 0 1.6333-0.7923 1.6333-1.7697s-0.7313-1.7697-1.6333-1.7697z" fill="#251007"/>
<path d="m66.966 94.213h-3.2667c-0.9021 0-1.6333 0.7922-1.6333 1.7694 0 0.9773 0.7312 1.7695 1.6333 1.7695h3.2667c0.9021 0 1.6333-0.7922 1.6333-1.7695 0-0.9772-0.7312-1.7694-1.6333-1.7694z" fill="#251007"/>
<path d="m89.833 94.213h-16.333c-0.902 0-1.6333 0.7922-1.6333 1.7694 0 0.9773 0.7313 1.7695 1.6333 1.7695h16.333c0.902 0 1.6333-0.7922 1.6333-1.7695 0-0.9772-0.7313-1.7694-1.6333-1.7694z" fill="#251007"/>
<path d="m63.7 83.594h16.333c0.9021 0 1.6334-0.7924 1.6334-1.7697 0-0.9774-0.7313-1.7698-1.6334-1.7698h-16.333c-0.9021 0-1.6333 0.7924-1.6333 1.7698 0 0.9773 0.7312 1.7697 1.6333 1.7697z" fill="#251007"/>
</svg>

<svg width="98" height="107" viewBox="0 0 98 107" fill="none" xmlns="http://www.w3.org/2000/svg">
<path d="M93.1 71.2061H88.2C94.1099 55.8368 91.896 38.207 82.4111 25.1073C72.9263 12.0075 57.6502 5.48159 42.4667 8.043V5.7246C42.4667 2.79234 40.2729 0.415283 37.5667 0.415283H4.9C2.1938 0.415283 0 2.79234 0 5.7246V30.5014C0 33.4337 2.1938 35.8107 4.9 35.8107H9.8C3.89013 51.1801 6.10399 68.8099 15.5889 81.9096C25.0737 95.0093 40.3498 101.535 55.5333 98.9739V101.292C55.5333 104.225 57.7271 106.602 60.4333 106.602H93.1C95.8062 106.602 98 104.225 98 101.292V76.5155C98 73.5832 95.8062 71.2061 93.1 71.2061ZM84.8027 71.2061H70.707L63.0793 66.0561C63.847 65.8968 62.0667 65.8968 86.4687 65.8968C85.2437 70.2682 84.8027 70.339 84.8027 71.2061ZM87.8733 48.1991H69.9067C68.828 48.1944 67.7953 47.7257 67.0356 46.8959C66.276 46.0662 65.8517 44.9434 65.856 43.7747C65.856 41.6564 65.0772 39.6253 63.6917 38.1308C62.3062 36.6362 60.4283 35.8013 58.4733 35.8107H56.5787C54.3235 35.8107 52.4953 33.8298 52.4953 31.3863C52.4953 28.9427 54.3235 26.9619 56.5787 26.9619H66.052C69.6825 26.9471 72.7515 24.044 73.255 20.1482C81.3669 27.0291 86.6251 37.1188 87.8733 48.1991ZM3.26667 30.5014V5.7246C3.26667 4.74718 3.99793 3.95483 4.9 3.95483H37.5667C38.4687 3.95483 39.2 4.74718 39.2 5.7246V39.7042L28.6323 32.5366C28.0607 32.1473 29.7757 32.2712 4.9 32.2712C4.46681 32.2712 4.05137 32.0847 3.74506 31.7528C3.43875 31.4209 3.26667 30.9708 3.26667 30.5014ZM13.1973 35.8107H27.293L34.888 40.9608C34.1203 41.1908 34.4797 41.12 26.264 41.12C22.2047 41.12 18.914 44.6856 18.914 49.084C18.914 53.4824 22.2047 57.048 26.264 57.048H41.4213C43.6765 57.048 45.5047 59.0289 45.5047 61.4724C45.5047 63.9159 43.6765 65.8968 41.4213 65.8968H11.5313C6.79467 49.1017 13.1973 36.9611 13.1973 35.8107ZM12.6747 69.4364H41.4213C45.4806 69.4364 48.7713 65.8708 48.7713 61.4724C48.7713 57.074 45.4806 53.5084 41.4213 53.5084H26.264C24.0088 53.5084 22.1807 51.5275 22.1807 49.084C22.1807 46.6405 24.0088 44.6596 26.264 44.6596H33.8427C35.3761 44.6984 36.8715 44.1395 38.0567 43.0845C40.0657 44.4649 40.229 44.6596 40.8333 44.6596C41.7354 44.6596 42.4667 43.8672 42.4667 42.8898V11.6356C52.1097 9.8397 62.0233 12.0449 70.2333 17.8121C70.1683 18.2035 70.1355 18.6003 70.1353 18.9979C70.1397 20.1728 69.7109 21.3009 68.9442 22.1316C68.1774 22.9624 67.1363 23.427 66.052 23.4223H56.5787C52.5194 23.4223 49.2287 26.9879 49.2287 31.3863C49.2287 35.7847 52.5194 39.3503 56.5787 39.3503H58.4733C60.7157 39.3697 62.5241 41.3449 62.524 43.7747C62.524 48.1593 65.7948 51.7192 69.8413 51.7387H88.2C88.3716 55.3019 88.0969 58.874 87.3833 62.3573H64.092C62.5785 62.315 61.101 62.8612 59.927 63.897L58.0323 62.6228C57.5283 62.2814 56.893 62.2637 56.3734 62.5765C55.8539 62.8892 55.5321 63.4831 55.5333 64.1271V73.4715C54.7905 74.2841 53.7796 74.7426 52.724 74.7457H42.4667C38.4074 74.9705 35.2849 78.7183 35.4923 83.1167C35.6998 87.5151 39.1587 90.8984 43.218 90.6736H45.1127C46.1913 90.6783 47.224 91.1471 47.9837 91.9768C48.7433 92.8066 49.1677 93.9293 49.1633 95.0981V95.9829C33.1355 96.049 18.685 85.5359 12.6747 69.4364ZM52.4627 95.806V95.0981C52.4627 90.7135 49.1919 87.1536 45.1453 87.1341H43.2507C40.9955 87.266 39.0686 85.3921 38.9468 82.9486C38.8251 80.505 40.5545 78.4172 42.8097 78.2852H52.724C53.6895 78.2868 54.6452 78.076 55.5333 77.6658V95.3635C54.5697 95.5582 53.557 95.7175 52.4627 95.806ZM94.7333 101.292C94.7333 102.27 94.0021 103.062 93.1 103.062H60.4333C59.5313 103.062 58.8 102.27 58.8 101.292V67.3126C70.4293 75.2058 69.58 74.7457 70.2333 74.7457H93.1C94.0021 74.7457 94.7333 75.538 94.7333 76.5155V101.292Z" fill="#251007"/>
<path d="M9.79959 11.0335H11.4329C12.335 11.0335 13.0662 10.2413 13.0662 9.26409C13.0662 8.28684 12.335 7.49463 11.4329 7.49463H9.79959C8.89753 7.49463 8.16626 8.28684 8.16626 9.26409C8.16626 10.2413 8.89753 11.0335 9.79959 11.0335Z" fill="black"/>
<path d="M17.9671 11.0335H32.6671C33.5692 11.0335 34.3004 10.2413 34.3004 9.26409C34.3004 8.28684 33.5692 7.49463 32.6671 7.49463H17.9671C17.065 7.49463 16.3337 8.28684 16.3337 9.26409C16.3337 10.2413 17.065 11.0335 17.9671 11.0335Z" fill="#251007"/>
<path d="M9.79959 19.883H26.1329C27.035 19.883 27.7663 19.0905 27.7663 18.113C27.7663 17.1355 27.035 16.343 26.1329 16.343H9.79959C8.89753 16.343 8.16626 17.1355 8.16626 18.113C8.16626 19.0905 8.89753 19.883 9.79959 19.883Z" fill="#251007"/>
<path d="M34.2996 26.9621C34.2996 25.9847 33.5683 25.1924 32.6663 25.1924H9.79959C8.89753 25.1924 8.16626 25.9847 8.16626 26.9621C8.16626 27.9395 8.89753 28.7318 9.79959 28.7318H32.6663C33.5683 28.7318 34.2996 27.9395 34.2996 26.9621Z" fill="#251007"/>
<path d="M89.8329 87.1343H63.6995C62.7974 87.1343 62.0662 87.9266 62.0662 88.904C62.0662 89.8814 62.7974 90.6737 63.6995 90.6737H89.8329C90.7349 90.6737 91.4662 89.8814 91.4662 88.904C91.4662 87.9266 90.7349 87.1343 89.8329 87.1343Z" fill="#251007"/>
<path d="M66.9662 94.2134H63.6995C62.7974 94.2134 62.0662 95.0056 62.0662 95.9828C62.0662 96.9601 62.7974 97.7523 63.6995 97.7523H66.9662C67.8683 97.7523 68.5995 96.9601 68.5995 95.9828C68.5995 95.0056 67.8683 94.2134 66.9662 94.2134Z" fill="#251007"/>
<path d="M89.8334 94.2134H73.5C72.598 94.2134 71.8667 95.0056 71.8667 95.9828C71.8667 96.9601 72.598 97.7523 73.5 97.7523H89.8334C90.7354 97.7523 91.4667 96.9601 91.4667 95.9828C91.4667 95.0056 90.7354 94.2134 89.8334 94.2134Z" fill="#251007"/>
<path d="M63.6995 83.5944H80.0328C80.9349 83.5944 81.6662 82.802 81.6662 81.8247C81.6662 80.8473 80.9349 80.0549 80.0328 80.0549H63.6995C62.7974 80.0549 62.0662 80.8473 62.0662 81.8247C62.0662 82.802 62.7974 83.5944 63.6995 83.5944Z" fill="#251007"/>
</svg>
